X:1
T: Honeymoon Jig
M: 9/8
Z:
R: slipjig
C: J-10
K: Am
D|: "G"G2B BAB BAB| G2B BAB "Am"c2A| "G"G2B BAB BAB| "Am"ABA A2B c2A :|
 |: "G"G2B d2B d2B| G2B d2B "Am"c2A| "G"G2B d2B d2B| "Am"ABA A2B c2A :|
%
